X:1
T: Handsome Young Maids
T: Handsome Young Lasses
C: Charlie Lennon
M: 6/8
Z: Transcribed to abc by Mary Lou Knack
R: jig
K: A
e \
| "A"aed cBA \
| cde aga \
| "E7"bee dee \
| Bee bag \
| "A"aed cBA \
| cde aga \
| "E7"bee dee \
| BAG "A"A2 :|
B \
| "A"c2A ABc \
| "D"dcd "E7"fed \
| "A"cAc aec \
| "E7"B2f fed \
| "A"c2A ABc \
| "D"dcd "E7"fed \
| "A"ece "D"fed \
| "E7"cdB "A"A2 ||
B \
| "A"c2A ABc \
| "D"dcd "E7"fed \
| "A"cAc aec \
| "Bm"B2f "E7"fed \
| "A"c2A ABc \
| "D"dcd "E7"fed \
| "A"ece "D"fef \
| "E7"gfg bag |]
